X:205
%%pagewidth 9in
%%vocalfont Baskerville10Pro 14
T:Never love thee more
M:6/8
L:1/8
K:G
%%score 1 2
V:1 clef-treble
V:2 clef-bass octave=-1
%%pos vol above
[V:1]D|D2D G2A & B,6|B2B D2D & B,6|[B,B]2B [CA]2[DG]|E3-E2[B,D]|
w:My dear and on-ly love, take heed How thou thy-self ex-pose,* By
[V:2]z|[G,DG]6|[G,DG]6|[G,DG]3[A,F]2[B,G]|[CG]3-[CG]2[G,G]|
[V:1]D2DG2A & B,6|[B,B]2B D2D|B2B A2G & D3 ^C3|[DFd]3-[DFd]2||d|
w:let-ting long-ing lov-ers feed Up-on such looks as those.* I'll
[V:2][G,DG]6|G3[FA]3|[EG]3[EG]3|[DA]3-[DA]2||z|
[V:1][DB]2B A2G|[Gc]2[Bd] [ce]2[Gd]|[Gd]2B [CA]2[DG]|E3-E2D & x3[A,C]3|
w:mar-ble-wall thee round a-bout, And build with-out a door;* But
[V:2][G,DG]6|G3-G2G & E2D C2B,|G3x3 & B,2G, [A,F]2[B,G]|[CG]3 F,3|
[V:1]D2D [B,G]2[CA] & B,3x3|[D(B][c)E][Fd] [Ge]2[Gd]|[Gd]2B [FA]2G|G3-G2||
w:if thy heart do once* break out, I'll ne-ver love thee more.*
[V:2]G,3 [EG]3|[DG]3 [CG]2[DB]|BG2 x3 &D3 [Dc]2[GB]|[GB]3-[GB]2||

